packages/elvis-assets-icons/icons/svg/src/graph_up.svg

<svg width="24" height="24" fill="none" xmlns="http://www.w3.org/2000/svg"><path fill-rule="evenodd" clip-rule="evenodd" d="M.22 13.28c.141.142.33.22.53.22s.389-.078.53-.22l7.19-7.189A.746.746 0 019 5.872c.201 0 .389.078.53.219l3.129 3.129a2.23 2.23 0 001.59.658c.602 0 1.167-.233 1.592-.658L22.5 2.561V7.5a.75.75 0 001.5 0V.75a.751.751 0 00-.052-.276l-.004-.009a.75.75 0 00-.401-.405l-.032-.012A.735.735 0 0023.25 0H16.5a.75.75 0 000 1.5h4.941l-6.659 6.659a.747.747 0 01-1.062 0l-3.128-3.128a2.235 2.235 0 00-1.591-.658c-.602 0-1.167.233-1.592.658L.22 12.22a.743.743 0 00-.22.53c0 .2.078.389.22.53zM0 23.25c0 .414.336.75.75.75h22.5a.75.75 0 000-1.5h-.75V15c0-.827-.673-1.5-1.5-1.5h-3c-.827 0-1.5.673-1.5 1.5v7.5H15v-7c0-.827-.673-1.5-1.5-1.5h-3c-.827 0-1.5.673-1.5 1.5v7H7.5V18c0-.827-.673-1.5-1.5-1.5H3c-.827 0-1.5.673-1.5 1.5v4.5H.75a.75.75 0 00-.75.75zM21 15v7.5h-3V15h3zm-7.5.5v7h-3v-7h3zM6 18v4.5H3V18h3z" fill="#000"/></svg>

<svg width="24" height="24" viewBox="0 0 24 24" fill="none" xmlns="http://www.w3.org/2000/svg">
<path fill-rule="evenodd" clip-rule="evenodd" d="M0.22 13.28C0.361 13.422 0.55 13.5 0.75 13.5C0.95 13.5 1.139 13.422 1.28 13.28L8.47 6.091C8.611 5.95 8.8 5.872 9 5.872C9.201 5.872 9.389 5.95 9.53 6.091L12.659 9.22C13.083 9.645 13.648 9.878 14.249 9.878C14.851 9.878 15.416 9.645 15.841 9.22L22.5 2.561V7.5C22.5 7.914 22.836 8.25 23.25 8.25C23.664 8.25 24 7.914 24 7.5V0.75C24 0.661 23.984 0.572 23.954 0.491C23.9521 0.485364 23.9499 0.479728 23.9477 0.474338C23.9464 0.47112 23.9451 0.46799 23.944 0.465C23.868 0.281 23.719 0.132 23.543 0.0599999C23.533 0.0559999 23.522 0.0519999 23.511 0.0479999C23.426 0.0159999 23.339 0 23.25 0H16.5C16.086 0 15.75 0.336 15.75 0.75C15.75 1.164 16.086 1.5 16.5 1.5H21.441L14.782 8.159C14.64 8.301 14.451 8.379 14.251 8.379C14.051 8.379 13.862 8.301 13.72 8.159L10.592 5.031C10.168 4.607 9.603 4.373 9.001 4.373C8.399 4.373 7.834 4.606 7.409 5.031L0.22 12.22C0.078 12.361 0 12.55 0 12.75C0 12.95 0.078 13.139 0.22 13.28ZM0 23.25C0 23.664 0.336 24 0.75 24H23.25C23.664 24 24 23.664 24 23.25C24 22.836 23.664 22.5 23.25 22.5H22.5V15C22.5 14.173 21.827 13.5 21 13.5H18C17.173 13.5 16.5 14.173 16.5 15V22.5H15V15.5C15 14.673 14.327 14 13.5 14H10.5C9.673 14 9 14.673 9 15.5V22.5H7.5V18C7.5 17.173 6.827 16.5 6 16.5H3C2.173 16.5 1.5 17.173 1.5 18V22.5H0.75C0.336 22.5 0 22.836 0 23.25ZM21 15V22.5H18V15H21ZM13.5 15.5V22.5H10.5V15.5H13.5ZM6 18V22.5H3V18H6Z" fill="black"/>
</svg>
